X: 0793
T: MRS. GRAHAM'S REEL
B: Oliver Ditson "The Boston Collection of Instrumental Music" 1910 p.79 #3
F: http://conquest.imslp.info/files/imglnks/usimg/8/8f/IMSLP175643-PMLP309456-bostoncollection00bost_bw.pdf
%: 2012 John Chambers <jc:trillian.mit.edu>
N: It would make sense to repeat the part labelled "C", giving 32 bars in ABCB form.
M: 4/4
L: 1/8
K: D
"A: "[|] d | ADFD FAAB | GBFA BEEd  | ADFD FAGB | Agfe dDD :|
"B1:"[|] B | Adfd edfd | gefd eg=ce | ddfd eeae | fdec dDD ||
         d | d2fd edfd | gefd cdeg  | fdcd AdFd | Agfe dDD |]
"C: "[|] F | AdFd AdFA | BdFA BEEF  | AdFd AdFd | GBAc dDD |]
"B2:"[|] F | Adfd edfd | gefd eg=ce | d2fd eeag | fdec dDD ||
         c | d2fd edfd | gefd cdeg  | fdcd AdFd | Agfe dDD |]

%%sep 1 1 500
%%sep 1 1 500
